rospo-light/small/status/view-private-symbolic.svg

<?xml version="1.0" encoding="UTF-8" standalone="no"?>
<svg
   xmlns:dc="http://purl.org/dc/elements/1.1/"
   xmlns:cc="http://creativecommons.org/ns#"
   xmlns:rdf="http://www.w3.org/1999/02/22-rdf-syntax-ns#"
   xmlns:svg="http://www.w3.org/2000/svg"
   xmlns="http://www.w3.org/2000/svg"
   xmlns:sodipodi="http://sodipodi.sourceforge.net/DTD/sodipodi-0.dtd"
   xmlns:inkscape="http://www.inkscape.org/namespaces/inkscape"
   width="22"
   height="22"
   version="1.1"
   id="svg6"
   sodipodi:docname="view-private-symbolic.svg"
   inkscape:version="0.92.1 r">
  <metadata
     id="metadata12">
    <rdf:RDF>
      <cc:Work
         rdf:about="">
        <dc:format>image/svg+xml</dc:format>
        <dc:type
           rdf:resource="http://purl.org/dc/dcmitype/StillImage" />
      </cc:Work>
    </rdf:RDF>
  </metadata>
  <defs
     id="defs10" />
  <sodipodi:namedview
     pagecolor="#ffffff"
     bordercolor="#666666"
     borderopacity="1"
     objecttolerance="10"
     gridtolerance="10"
     guidetolerance="10"
     inkscape:pageopacity="0"
     inkscape:pageshadow="2"
     inkscape:window-width="1111"
     inkscape:window-height="480"
     id="namedview8"
     showgrid="false"
     inkscape:zoom="10.727273"
     inkscape:cx="10.732001"
     inkscape:cy="11"
     inkscape:window-x="0"
     inkscape:window-y="0"
     inkscape:window-maximized="0"
     inkscape:current-layer="svg6" />
  <g
     id="g824"
     transform="translate(3,3.5)">
    <path
       id="path2"
       d="M 4,8 C 2.34,8 1,9.34 1,11 1,12.66 2.34,14 4,14 5.56,14 6.82,12.8 6.97,11.28 7.27,11.1 7.63,11 8,11 8.37,11 8.73,11.1 9.03,11.28 9.18,12.8 10.44,14 12,14 13.66,14 15,12.66 15,11 15,9.34 13.66,8 12,8 10.61,8 9.46,8.97 9.13,10.25 8.77,10.11 8.4,10 8,10 7.6,10 7.23,10.11 6.88,10.25 6.54,8.97 5.39,8 4,8 Z m 0,1.25 c 0.97,0 1.75,0.78 1.75,1.75 0,0.97 -0.78,1.75 -1.75,1.75 C 3.03,12.75 2.25,11.97 2.25,11 2.25,10.03 3.03,9.25 4,9.25 Z m 8,0 c 0.97,0 1.75,0.78 1.75,1.75 0,0.97 -0.78,1.75 -1.75,1.75 -0.97,0 -1.75,-0.78 -1.75,-1.75 0,-0.97 0.78,-1.75 1.75,-1.75 z"
       style="fill:#5c616c"
       inkscape:connector-curvature="0" />
    <path
       id="path4"
       d="M 4,1 3.25,4 h 9.5 L 12,1 8,1.5 Z M 3,5 0,7 H 16 L 13,5 Z"
       style="fill:#5c616c"
       inkscape:connector-curvature="0" />
  </g>
</svg>

<svg xmlns="http://www.w3.org/2000/svg" width="16" height="16" version="1.1">
 <path style="fill:#5c616c" d="M 4,8 C 2.34,8 1,9.34 1,11 1,12.66 2.34,14 4,14 5.56,14 6.82,12.8 6.97,11.28 7.27,11.1 7.63,11 8,11 8.37,11 8.73,11.1 9.03,11.28 9.18,12.8 10.44,14 12,14 13.66,14 15,12.66 15,11 15,9.34 13.66,8 12,8 10.61,8 9.46,8.97 9.13,10.25 8.77,10.11 8.4,10 8,10 7.6,10 7.23,10.11 6.88,10.25 6.54,8.97 5.39,8 4,8 Z M 4,9.25 C 4.97,9.25 5.75,10.03 5.75,11 5.75,11.97 4.97,12.75 4,12.75 3.03,12.75 2.25,11.97 2.25,11 2.25,10.03 3.03,9.25 4,9.25 Z M 12,9.25 C 12.97,9.25 13.75,10.03 13.75,11 13.75,11.97 12.97,12.75 12,12.75 11.03,12.75 10.25,11.97 10.25,11 10.25,10.03 11.03,9.25 12,9.25 Z"/>
 <path style="fill:#5c616c" d="M 4,1 3.25,4 H 12.75 L 12,1 8,1.5 Z M 3,5 0,7 H 16 L 13,5 Z"/>
</svg>
